resources/img/thumbnail-avatar.svg

<?xml version="1.0" encoding="UTF-8"?>
<svg width="48px" height="48px" viewBox="0 0 48 48" version="1.1" xmlns="http://www.w3.org/2000/svg" xmlns:xlink="http://www.w3.org/1999/xlink">
    <!-- Generator: Sketch 56.3 (81716) - https://sketch.com -->
    <title>Ratsmitglieder/Schneider</title>
    <desc>Created with Sketch.</desc>
    <defs>
        <rect id="path-1" x="0" y="0" width="48" height="48" rx="24"></rect>
    </defs>
    <g id="Symbols" stroke="none" stroke-width="1" fill="none" fill-rule="evenodd">
        <g id="cells/person/688_bild" transform="translate(0.000000, -16.000000)">
            <g id="assets/personen/person" transform="translate(0.000000, 16.000000)">
                <mask id="mask-2" fill="white">
                    <use xlink:href="#path-1"></use>
                </mask>
                <use id="Rectangle-29" fill="#D0D0D2" fill-rule="evenodd" xlink:href="#path-1"></use>
                <path d="M45.8315965,56.5265833 L2.15342098,56.5265833 C0.852759272,56.5265833 -0.131371396,55.4591267 0.0162770604,54.1423522 C0.0162770604,54.1423522 -0.849516397,48.1906851 10.0477366,44.3597555 C10.0477366,44.3597555 16.759994,42.0667436 17.1999711,39.9998333 C17.6399482,37.9350561 17.3104867,35.7188334 17.3104867,35.7188334 C17.3104867,35.7188334 15.2544799,34.1041264 14.7769692,30.0470951 C14.7769692,30.0470951 13.3652891,29.8593881 12.8231372,27.6261011 C12.2789001,25.3906812 12.4269493,24.2260444 13.3819707,23.2128531 C13.3819707,23.2128531 7.72065386,5.45747531 23.9560177,5.33375931 C28.8750035,5.29749773 30.0135225,7.58837661 30.0135225,7.58837661 C40.1100589,10.1800133 34.6030468,23.2128531 34.6030468,23.2128531 C35.5580682,24.2260444 35.7040322,25.3906812 35.1618803,27.6261011 C34.6197284,29.8593881 33.2080483,30.0470951 33.2080483,30.0470951 C32.7305376,34.1041264 30.6745308,35.7188334 30.6745308,35.7188334 C30.6745308,35.7188334 30.3450692,37.9350561 30.7850464,39.9998333 C31.2250235,42.0667436 37.9372809,44.3597555 37.9372809,44.3597555 C48.8345339,48.1906851 47.9687404,54.1423522 47.9687404,54.1423522 C48.1953963,55.4643382 47.159557,56.5265833 45.8315965,56.5265833 Z" id="Page-1" fill-opacity="0.550215127" fill="#6A6A6A" fill-rule="nonzero" mask="url(#mask-2)"></path>
            </g>
        </g>
    </g>
</svg>

<svg width="48" height="48" viewBox="0 0 48 48" xmlns="http://www.w3.org/2000/svg" xmlns:xlink="http://www.w3.org/1999/xlink">
    <defs>
        <rect id="a" x="0" y="0" width="48" height="48" rx="24"/>
    </defs>
    <g fill="none" fill-rule="evenodd">
        <mask id="b" fill="#fff">
            <use xlink:href="#a"/>
        </mask>
        <use fill="#D0D0D2" xlink:href="#a"/>
        <path d="M45.8316 56.5266H2.1534c-1.3006 0-2.2848-1.0675-2.1371-2.3842 0 0-.8658-5.9517 10.0314-9.7826 0 0 6.7123-2.293 7.1523-4.36.44-2.0647.1105-4.281.1105-4.281s-2.056-1.6147-2.5335-5.6717c0 0-1.4117-.1877-1.9539-2.421-.5442-2.2354-.3962-3.4.5589-4.4132 0 0-5.6613-17.7554 10.574-17.8791 4.919-.0363 6.0575 2.2546 6.0575 2.2546C40.1101 10.18 34.603 23.2129 34.603 23.2129c.955 1.0131 1.101 2.1778.5589 4.4132-.5422 2.2333-1.9539 2.421-1.9539 2.421-.4775 4.057-2.5335 5.6717-2.5335 5.6717s-.3294 2.2163.1105 4.281c.44 2.067 7.1523 4.36 7.1523 4.36 10.8972 3.8309 10.0314 9.7826 10.0314 9.7826.2267 1.322-.8091 2.3842-2.1371 2.3842z" fill-opacity=".5502" fill="#6A6A6A" fill-rule="nonzero" mask="url(#b)"/>
    </g>
</svg>
